X:13
T:Hochzitstanz G (tinwhistle in D) solo
T:st00921 (Hanny Christen)
%%MIDI program 72   % 111 /74 / 79=whistle
R:shottishe
M:2/4
L:1/8
K:G transpose=12
dd!>!d2 | BB!>!B2 | GB e>d | d2"_c"c2 | cc c>B | AA A>G | FA e>d | G2G2 :| 
W:
W:for tin whistle TABs go to: 
W:http://www.mandolintab.net/abcconverter.php
W:" Tablatur: Whistle - key: D "
W:a fingering chart (advanced) you can download from:
W:http://fullbodyburn.com/wp-content/uploads/2011/07/01-D1.jpg
% June 30, 2016

